x.svg

<svg viewBox="0 0 24 24" version="1.1" xmlns="http://www.w3.org/2000/svg" xmlns:xlink="http://www.w3.org/1999/xlink">
    <title>X</title>
        <path d="M18.9014045,0 L22.5815603,0 L14.5415102,9.31897436 L24,22 L16.5940759,22 L10.7934919,14.3090256 L4.15630649,22 L0.473925741,22 L9.07356418,12.0323077 L0,0 L7.59393687,0 L12.8371576,7.02984615 L18.9014045,0 Z M17.60979,19.7661538 L19.6490057,19.7661538 L6.48588513,2.11651282 L4.29759421,2.11651282 L17.60979,19.7661538 Z" fill="#000000" fill-rule="nonzero"></path>
</svg>

<svg viewBox="0 0 24 24" xmlns="http://www.w3.org/2000/svg"><path d="M18.901 0h3.68l-8.04 9.319L24 22h-7.406l-5.8-7.691L4.155 22H.474l8.6-9.968L0 0h7.594l5.243 7.03L18.901 0ZM17.61 19.766h2.039L6.486 2.116H4.298l13.312 17.65Z"/></svg>
